X:21
T:GB/7b/21 Constant Billy (Dance)
%%VWML:GB-7b-21-0
F:http://www.vwml.org/record/GB/7b/21
C:Transcribed by Simon Furey and Lewis Jones
L:1/8
Q:1/4=120
M:6/8
I:linebreak $
K:F
F | A2 A A>GA | B2 G E>DC | A>GF D2 D | C>DE F2 :|$ z | A>Bc def | G>AB AGF | A>Bc def | c>cd c2 B |$ A2 A A>GA | B2 G E>DC | A>GF D2 D | C>DE F2 |]

